X:1
T:James Gibb editions
T:Ego sum panis vivus - Agostini
T:#
%%score [ 1 2 3 4 ]
L:1/8
Q:1/4=200
M:none
K:C
V:1 treble nm="Soprano I" snm="S I"
V:2 treble nm="Soprano II" snm="S II"
V:3 treble nm="Alto" snm="A"
V:4 treble-8 nm="Tenor" snm="T"
V:1
"^Ego sum panis vivus""^Paolo Agostini\n(1593-1629)" G8 B4 d4 | (c2 d2 e2 c2 d2 c2 B2 A2 | %2
w: E- go sum|pa\- * * * * * * *|
 G2 F2 E2 F2 G2 A2 B2 G2 | c4) C4 D8 | E8 ||[M:3/1][Q:1/4=360] z16 x8 | %6
w: |* nis vi-|vus,||
[M:3/1][Q:1/4=360][Q:1/4=360][Q:1/4=360][Q:1/4=360] z16 x8 | z8 G8 A8 | (B12 A4) B8 | (c12 d4 c8) | %10
w: |qui de|coe\- * lo|de\- * *|
 (B12 c4 B8 | A12 B4 c4 d4 | B4 c4 A16) | G8 B8 c8 | d12 c4 d8 | e24 | e16 e8 | c12 c4 d8- | %18
w: scen\- * *|||di, qui de|coe- lo de-|scen-|di, de|coe- lo de\-|
 d8 B16 | A24 ||[Q:1/4=108] z2 c4 c2 c4 A4 | A3 A A4 z4 z4 | z4 z2 c4 d4 e2- | %23
w: * scen-|di:|Si quis man- du-|ca- ve- rit,|vi- vet in|
[Q:1/4=108][Q:1/4=108][Q:1/4=108][Q:1/4=108] eB (c4 B2) c4 z2 c2- | cc B4 A2 ^G3 G G4 | %25
w: * ae- ter\- * num, si|* quis man- du- ca- ve- rit|
 c3 A F4 G4 E4 | F4 G3 B A4 B2[Q:1/4=107] (G2- | %27
w: ex hoc pa- ne, vi-|vet, vi- vet in ae- ter\-|
[Q:1/4=106] G2[Q:1/4=104] A4[Q:1/4=103] B3[Q:1/4=102] A[Q:1/4=101]G[Q:1/4=101]^F[Q:1/4=100] E2[Q:1/4=99] e2 | %28
w: |
[Q:1/4=97] d8)[Q:1/4=93] d8 |] %29
w: * num.|
V:2
 z16 | G8 B4 d4 | c8 B4 d4- | d2 c2 c8 B4 | c8 ||[M:3/1] z8 B8 c8 |[M:3/1] (d12 c4) d8 | %7
w: |E- go sum|pa- nis vi\-||vus,|qui de|coe\- * lo|
 (e12 f4 e8) | d8 d8 G8 | A24 | D16 d8 | d12 d4 e8- | e8 d16 | d8 G8 A8 | B12 A4 B8 | c24 | %16
w: de\- * *|scen- di, de-|scen-|di, de|coe- lo de\-|* scen-|di, qui de|coe- lo de-|scen-|
 c16 c8 | A12 A4 B8 | (A16 ^G8) | A24 || z2 A4 A2 G4 F4 | E3 E E2 A3 _B (F4 E2) | F8 A4 B4 | %23
w: di, de|coe- lo de-|scen\- *|di:|Si quis man- du-|ca- ve- rit ex hoc pa\- *|ne, vi- vet|
 c3 e d4 c4 z2 e2- | ee d4 c2 B3 B B2 e2- | ef c4 B2 c2 G4 c2- | c2 B3 E (G4 ^F2) G2 dB | %27
w: in ae- ter- num, si|* quis man- du- ca- ve- rit ex|* hoc pa\- * ne, vi- vet|* in ae- ter\- * num, vi- vet|
 (ed) (cB) A2 d2 z2 B4 c2- | c2 BG A4 B8 |] %29
w: in * ae\- * ter- num, vi- vet|* in ae- ter- num.|
V:3
 z8 G8 | E4 C4 G4 D4 | E8 D4 G4- | G4 ^F4 G8 | G8 ||[M:3/1] z16 x8 |[M:3/1] z16 x8 | z8 E12 F4 | %8
w: E-|go sum pa- nis|vi- vus, pa\-|* nis vi-|vus,|||qui de|
 (G12 ^F4) G8 | (C4 D4 E12 ^F4) | G8 G8 G8 | ^F12 F4 G8 | (G16 ^F8) | G24- | G24 | z8 C8 D8 | %16
w: coe\- * lo|de\- * * *|scen- di, de|coe- lo de-|scen\- *|di,||qui de|
 E12 D4 E8 | F8 F8 D8- | D8 E16 | A,24 || z4 z2 F3 F E4 D2 | ^C3 C C4 F3 D _B,4 | C8 F4 G4 | %23
w: coe- lo de|scen- di, de\-|* scen-|di:|Si quis man- du-|ca- ve- rit ex hoc pa-|ne, vi- vet|
 A3 E (F2 G2) C2 G4 G2 | G4 E4 E2 E2 E4 | A3 F D4 C8 | z16 | E4 ^F4 G6 E2 | (^F2 G4 F2) G8 |] %29
w: in ae- ter\- * num, si quis|man- du- ca- ve- rit|ex hoc pa- ne,||vi- vet in ae-|ter\- * * num.|
V:4
 z16 | z8 G8 | E4 C4 G8 | A8 G8 | C8 ||[M:3/1] z8 G8 A8 |[M:3/1][K:treble-8] (B12 A4) B8 | %7
w: |E-|go sum pa-|nis vi-|vus,|qui de|coe\- * lo|
 (c12 d4 c8) | (B12 c4 B8 | A24) | G16 G8 | d12 d4 c8- | c8 d16 | G24- | G24 | z16 x8 | z16 x8 | %17
w: de\- * *|scen\- * *||di, de|coe- lo de\-|* scen-|di:||||
 z16 x8 | z16 x8 | z16 x8 || z2 F4 F2 c4 d4 | A3 A A4 d3 _B G4 | F8 z8 | z8 z2 c4 C2 | %24
w: |||Si quis man- du-|ca- ve- rit ex hoc pa-|ne,|si quis|
 G4 A4 E3 E E4 | z4 z8 c4 | d4 e3 B (c2 d2) G4 | c4 d4 e6"^Version 1.0 (2009/12/24)" c2 | d8 G8 |] %29
w: man- du- ca- ve- rit,|vi-|vet in ae- ter\- * num,|vi- vet in ae-|ter- num.|

